X: 1
T: Boy In The Gap, The
M: 6/8
L: 1/8
R: jig
K: Gmin
|:GAG BcB|AFF F2 A|GAG gag|fdd d2=e|
fgf fed|cdB ABc|ded d2 c|BGG G3:|
|:gag gab|aff f2 a|gef gab|afd d2 =e|
fgf fed|cdB ABc|ded d2 c|BGG G3:|
